modules/feathericon/icons/globe.svg

<?xml version="1.0" encoding="UTF-8"?>
<svg width="24px" height="24px" viewBox="0 0 24 24" version="1.1" xmlns="http://www.w3.org/2000/svg" xmlns:xlink="http://www.w3.org/1999/xlink">
    <!-- Generator: sketchtool 52.2 (67145) - http://www.bohemiancoding.com/sketch -->
    <title>globe</title>
    <desc>Created with sketchtool.</desc>
    <g id="web-app" stroke="none" stroke-width="1" fill="none" fill-rule="evenodd">
        <g id="globe" fill="#000000">
            <path d="M2,12 C2,6.4771525 6.4771525,2 12,2 C17.5228475,2 22,6.4771525 22,12 C22,17.5228475 17.5228475,22 12,22 C6.4771525,22 2,17.5228475 2,12 Z M4,12 C4,16.418278 7.581722,20 12,20 C16.418278,20 20,16.418278 20,12 C20,7.581722 16.418278,4 12,4 C7.581722,4 4,7.581722 4,12 Z M8.2519054,10.4477252 C8.49473884,9.94016177 8.89547299,8.5 9.18375503,8.5 C9.47203706,8.5 9.36713476,9.2233326 9.625,9.28600462 C9.84168002,9.33866691 9.67585559,8.96335807 10.2782354,8.89612415 C10.8806151,8.82889022 11.5388792,9.1981971 11.5388792,9.1981971 C11.5388792,9.1981971 12.2500001,9.375 12.90699,9.19819712 C12.90699,9.19819712 12.5600524,8.67205739 12.9847345,8.5 C13.4094166,8.32794261 13.9872104,8.96401249 14.0081495,9.37499998 C14.0290885,9.78598747 13.0643364,10.0624084 13.0643364,10.0624084 L14.0081496,10.6287317 C14.0081496,10.6287317 14.2847894,9.75115058 14.875,9.74198581 C15.399853,9.73282103 16.0576064,10.6916143 15.75,11.125 C15.4423936,11.5583857 15.2440134,11.2598864 15.2440134,11.2598864 C15.2440134,11.2598864 14.3032935,12.2121913 14.0081495,12.3826623 C13.7130054,12.5531333 13.3001014,12.3826623 13.3001014,12.3826623 C13.3001014,12.3826623 13.1250001,12.7068323 13.3001016,12.8557552 C13.6552429,13.2218483 14.5765957,13.5866501 14.5765957,13.5866501 C14.5765957,13.5866501 17.4115318,14.0471392 17.5000001,14.625 C17.5884684,15.2028608 15.2440134,18.1250004 14.8750001,18.1250004 C14.5059867,18.1250004 14.0000001,18.1250004 14,18.1250004 C13.6426496,17.4949768 14.5765957,15.4807552 14.5765957,15.4807552 C14.5765957,15.4807552 14.0964321,14.9491857 14,14.625 C13.9035679,14.3008143 14.1864579,13.7307552 14.1864579,13.7307552 L12.9069902,13.1424373 C12.9069902,13.1424373 12.2272388,13.1424373 11.8900678,12.875 C11.5528968,12.6075627 11.375,11.125 11.375,11.125 L10.1541234,10.2307552 C10.1541234,10.2307552 9.09578496,11.5767929 8.74999997,11.4050562 C8.40421499,11.2333196 8.00907197,10.9552887 8.2519054,10.4477252 Z M14.822341,8.35000488 C13.9776744,8.35000488 11.9467176,7.27646878 12.2883412,6.69936003 C12.2883412,5.87403755 14.4227184,5.99826107 14.8809456,5.99826107 C15.3391729,5.99826107 16.4604112,6.3523318 17.0835413,6.84768664 C17.7066713,7.34304148 16.8213954,8.05065808 16.5116742,8.35000488 C16.2019529,8.64935167 15.6670076,8.35000488 14.822341,8.35000488 Z" id="Shape"></path>
        </g>
    </g>
</svg>

<svg width="24" height="24" viewBox="0 0 24 24" xmlns="http://www.w3.org/2000/svg"><path d="M2 12C2 6.477 6.477 2 12 2s10 4.477 10 10-4.477 10-10 10S2 17.523 2 12zm2 0a8 8 0 1 0 16 0 8 8 0 0 0-16 0zm4.252-1.552c.243-.508.643-1.948.932-1.948.288 0 .183.723.441.786.217.053.05-.323.653-.39s1.26.302 1.26.302.712.177 1.369 0c0 0-.347-.526.078-.698.424-.172 1.002.464 1.023.875.021.411-.944.687-.944.687l.944.567s.277-.878.867-.887c.525-.01 1.183.95.875 1.383-.308.433-.506.135-.506.135s-.94.952-1.236 1.123c-.295.17-.708 0-.708 0s-.175.324 0 .473c.355.366 1.277.73 1.277.73s2.835.461 2.923 1.039c.088.578-2.256 3.5-2.625 3.5H14c-.357-.63.577-2.644.577-2.644s-.48-.532-.577-.856c-.096-.324.186-.894.186-.894l-1.279-.589s-.68 0-1.017-.267c-.337-.267-.515-1.75-.515-1.75l-1.22-.894s-1.06 1.346-1.405 1.174c-.346-.172-.74-.45-.498-.957zm6.57-2.098c-.844 0-2.875-1.074-2.534-1.65 0-.826 2.135-.702 2.593-.702.458 0 1.58.354 2.203.85.623.495-.263 1.203-.572 1.502-.31.3-.845 0-1.69 0z" fill="#000" fill-rule="evenodd"/></svg>
